X: 0
T: When Righteous Joseph Wedded Was
Z: English Traditional From Ralph Dunstan (1)
Z: Copyright © 2006 by Douglas D. Anderson
Z: Released To The Public Domain
L: 1/4
M: 2/2
Q: 1/4=264
V: P1 name="Church Organ"
%%MIDI program 1 19
V: P2 name="French Horn"
%%MIDI program 2 60
V: P3 name="Trombone"
%%MIDI program 3 57
V: P4 name="Tuba"
%%MIDI program 4 58
K: G
[V: P1]  G2 (B3/4c/4) (d3/4c/4) | B3 e | (d3/ c/ B) A | G4 | (B3/ A/) G F | (G3/ A/ B) c | d4 | d2 (e3/4d/4) =c3/4B/4 | A3 A | A4||: B2 d B | A2 B2 | (G3/ A/ B) B | d4 | z4 |z2 G2 | (E/F/) G F G | A4 | d2 d c | (B2 c/d/c/B/ | A3) A | G4 :|||] Z 
[V: P2]  D2 G A | (G2 G3/4F/4) E3/4F/4 | G3 F | D4 | z4 | z4 | (F2 G A | B3/ A/ G G3/4F/4 | E2 E3/4F/4) G | F4||: G2 G G | F2 F2 | E3 D3/4E/4 | F4 | z4 |z2z D | C D D D3/4E/4 | F4 | B2 B A | (G2 A/B/A/G/ | F3) F | [D4G4] :|||] Z 
[V: P3]  B,2 D D | D3 C | D3 D3/4C/4 | B,4 | z4 | z4 | (D3/ C/) B, A, | (G,3/ A,/) B, (E3/4D/4) | ^C3/ B,/ C C | D4||: D2 G,3/4A,/4 B,3/4C/4 | D2 D2 | (B,3/ A,/ G,) G, | A,4 | D2 B, B, | C A, B,3/4C/4 D | E D C B, | D4 | z4 | D2 E E | (A,3/ B,/ C) C | B,4 :|||] Z 
[V: P4]  G,2 G, F, | G,3 A, | (B,3/ A,/ G,) D, | G,,4 | z4 | (B,3/ A,/) G,/F,/ E, | D, D, G,2 | (G,3/ F,/) E, E, | A,3 A, | D,4||: G,2 B, G, | D,2 B,,2 | E,3 G, | D,4 | D,2 G, E, | A, E, B, G, | C B, A, G, | D,4 | z4 | G,2 C, C, | D,3 D, | G,,4 :|||] Z 

